X:50
T:A cseroldalt összejártam
O: "Közismert"
Q:"Tempo guisto"
L:1/4
K:C
d/d/A/B/ | c B | A G |
c/B/A/d/ | G (F/E/) | D D |
G/F/E/A/ | G F | E E |
c/B/A/B/ | G (F/E/) | D D |

